X:17
T:Bourre des semailles
T:Bourre Ra Ta Tam Bourbonnaise
R:Bourre
N:parfois aussi appel La bergre de Coulandon
N:tagafolk.abc
D:voir Amustrad
O:France
A:
Z:<anamnese@caramail.com> -- http://anamnese.fr.st
M:2/4
L:1/8
Q:1/4=120
K:C
f2 ef | d3 e/f/ | gf ed | e/f/e/d/c2 |
f2 ef | d3 e/f/ | gf ed | c4 ::
d>e cd | B3 c | d>c dg | f/g/ f/e/ dc |
d2 cd |  B3 c | d>c dc/d/ | c4 :|
%var
de/d/ cd | B3 c | d>c dg | f/g/ f/e/ dc |
W:"Je prends le bl, je le sme  la vole..."
W:"Je fauche..."
